assets/svgs/uzebox.svg

<?xml version="1.0" encoding="UTF-8" standalone="no"?>
<svg
   xmlns:dc="http://purl.org/dc/elements/1.1/"
   xmlns:cc="http://creativecommons.org/ns#"
   xmlns:rdf="http://www.w3.org/1999/02/22-rdf-syntax-ns#"
   xmlns:svg="http://www.w3.org/2000/svg"
   xmlns="http://www.w3.org/2000/svg"
   xmlns:sodipodi="http://sodipodi.sourceforge.net/DTD/sodipodi-0.dtd"
   xmlns:inkscape="http://www.inkscape.org/namespaces/inkscape"
   version="1.1"
   id="svg10"
   sodipodi:docname="uzebox.svg"
   width="264"
   height="80.959999"
   inkscape:version="0.92.5 (2060ec1f9f, 2020-04-08)">
  <metadata
     id="metadata16">
    <rdf:RDF>
      <cc:Work
         rdf:about="">
        <dc:format>image/svg+xml</dc:format>
        <dc:type
           rdf:resource="http://purl.org/dc/dcmitype/StillImage" />
      </cc:Work>
    </rdf:RDF>
  </metadata>
  <defs
     id="defs14" />
  <sodipodi:namedview
     pagecolor="#ffffff"
     bordercolor="#666666"
     borderopacity="1"
     objecttolerance="10"
     gridtolerance="10"
     guidetolerance="10"
     inkscape:pageopacity="0"
     inkscape:pageshadow="2"
     inkscape:window-width="640"
     inkscape:window-height="480"
     id="namedview12"
     showgrid="false"
     inkscape:zoom="2.36"
     inkscape:cx="50"
     inkscape:cy="30.96"
     inkscape:window-x="72"
     inkscape:window-y="27"
     inkscape:window-maximized="0"
     inkscape:current-layer="svg10" />
  <path
     d="m 0,56.708 7.677,-36.23 11.276,0.118 -5.799,26.54 15.519,-0.09 5.468,-26.487 9.854,0.057 -2.44,10.366 L 110.469,0 70.105,53.845 96.629,41.241 l 4.667,-20.567 36.177,0.329 -2.375,9.198 -26.508,-0.39 -1.046,4.387 18.71,0.111 -2.191,9.049 -18.92,-0.271 -0.489,3.889 26.989,0.16 -1.936,9.781 -36.595,-0.37 1.575,-7.924 -69.27,32.337 31.831,-46.193 -17.861,8.021 -2.842,14.398 z"
     style="fill:#ffffff"
     id="path2"
     inkscape:connector-curvature="0" />
  <path
     d="m 225.418,24.805 1.038,-4.295 11.171,0.058 5.556,9.835 10.29,-9.952 10.527,0.138 -0.253,3.838 -15.784,14.004 8.605,13.91 0.137,4.344 -11.344,0.094 -5.754,-9.879 -10.202,9.772 -11.056,0.123 0.537,-3.642 15.427,-14.51 z"
     style="fill:#ffffff"
     id="path4"
     inkscape:connector-curvature="0" />
  <path
     d="m 189.057,46.85 3.411,-16.387 16.165,-0.01 -3.214,16.649 z m 23.247,10.299 8.339,-36.363 -36.274,-0.007 -7.934,36.282 z"
     style="fill:#ffffff"
     id="path6"
     inkscape:connector-curvature="0" />
  <path
     d="m 150.131,33.614 0.537,-3.335 16.934,0.048 -0.613,3.436 z m -2.422,13.262 0.537,-3.334 16.933,0.047 -0.613,3.437 z m 17.702,9.438 6.783,-5.101 1.569,-7.963 -4.536,-5.662 7.048,-4.533 1.861,-8.27 -4.56,-4.13 -30.336,-0.057 -7.776,35.73 z"
     style="fill:#ffffff"
     id="path8"
     inkscape:connector-curvature="0" />
</svg>

<?xml version="1.0" encoding="utf-8"?>
<svg viewBox="0 0 264 81" xmlns="http://www.w3.org/2000/svg">
  <path d="M 0 56.708 L 7.677 20.478 L 18.953 20.596 L 13.154 47.136 L 28.673 47.046 L 34.141 20.559 L 43.995 20.616 L 41.555 30.982 L 110.469 0 L 70.105 53.845 L 96.629 41.241 L 101.296 20.674 L 137.473 21.003 L 135.098 30.201 L 108.59 29.811 L 107.544 34.198 L 126.254 34.309 L 124.063 43.358 L 105.143 43.087 L 104.654 46.976 L 131.643 47.136 L 129.707 56.917 L 93.112 56.547 L 94.687 48.623 L 25.417 80.96 L 57.248 34.767 L 39.387 42.788 L 36.545 57.186 L 0 56.708 Z" style="fill: rgb(255, 255, 255);"/>
  <path d="M 225.418 24.805 L 226.456 20.51 L 237.627 20.568 L 243.183 30.403 L 253.473 20.451 L 264 20.589 L 263.747 24.427 L 247.963 38.431 L 256.568 52.341 L 256.705 56.685 L 245.361 56.779 L 239.607 46.9 L 229.405 56.672 L 218.349 56.795 L 218.886 53.153 L 234.313 38.643 L 225.418 24.805 Z" style="fill: rgb(255, 255, 255);"/>
  <path d="M 189.057 46.85 L 192.468 30.463 L 208.633 30.453 L 205.419 47.102 Z M 212.304 57.149 L 220.643 20.786 L 184.369 20.779 L 176.435 57.061 Z" style="fill: rgb(255, 255, 255);"/>
  <path d="M 150.131 33.614 L 150.668 30.279 L 167.602 30.327 L 166.989 33.763 Z M 147.709 46.876 L 148.246 43.542 L 165.179 43.589 L 164.566 47.026 Z M 165.411 56.314 L 172.194 51.213 L 173.763 43.25 L 169.227 37.588 L 176.275 33.055 L 178.136 24.785 L 173.576 20.655 L 143.24 20.598 L 135.464 56.328 Z" style="fill: rgb(255, 255, 255);"/>
</svg>
